X: 025
T: Pantheon
B: 204 Favourite Country Dances
N: Published by Straight & Skillern, London ca.1775
F: http://imslp.org/wiki/204_Favourite_Country_Dances_(Various) p.13 #25
Z: 2014 John Chambers <jc:trillian.mit.edu>
N: The 2nd strain has initial repeat, but no final repeat; not fixed. (It may an AABCA form.)
M: 6/8
L: 1/8
K: G
%  - - - - - - - - - - - - - - - - - - - - - - - - -
|:\
d2d d2c | B2B B2A | G2G TAGA | B2B B2z |\
d2d d2c | B2B B2A | G2G TAGA | G3- HG3 :|
|:\
b2b bag | a2d def | g2g gfe | f2B Bcd |\
e2e edc | d2G GAB | cdc BcB | A3- A3 |]
[B3G3] AGA | BcB AGA | BcB AGA | BcB [A3D3] |\
a2a a2g | f2f f2e | d2d Tede | d3- d2 (G//A//B//"_D:C:"c//) |]
%  - - - - - - - - - - - - - - - - - - - - - - - - -
%%begintext align
%% Hands 6 round .| hands 6 back to back, back
%% again :| the 1st Cu. lead down 1 Cu. back again &
%% cast off the top Cu. into the 2d Cu.s place :|.
%% Allemand with your Part: :|: hands 6 round .:|:.
%%endtext

%%sep 1 1 500
%%sep 1 1 500
